X: 14
T: THERE'S NAE LUCK ABOOT THE HOOSE
S: "COUNTRY DANCES OF TODAY 2", CDSS, May Gadd ed., 1951 p.12
R: jig
Z: 2010 John Chambers <jc:trillian.mit.edu>
M: 6/8
L: 1/8
K: G
"A"|:: d |\
"G"g2e d2B | "C"c2d e2f | "G"g2e d2B | "D"A3- A2d |\
"G"g2e d2B | "Am"c2d e2g | "D7"d2c B2A | "G"G2- G2 ::|
"B"|: A |\
"G"B3 B2G | "D"c3 c2A | "G"B3 B2G | "D"A3- A2A |\
"G"B3 B2G | "C"c2d e2g | "D7"d2c B2A | "G"G2- G2 :|


%%sep 5 1 500

%%sep 1 1 500

